X:864
T:Stool of Repentance, The
R:Jig
B:The Athole Collection
M:6/8
L:1/8
K:A
e|a2e c2e|agf edc|aff f2e|fag f2e|a2e c2e|agf edc|d2f efg|a2c B2A:|
|:cAA eAA|cAA edc|dBB fBB|dBB fed|cAA eAA|cAA edc|d2e f2e|
fac B2A:|

